X:1
T:James Gibb editions
T:Psalm 30 (Becker) - Schütz
%%score [ ( 1 2 ) ( 3 4 ) ]
L:1/8
Q:1/4=120
M:3/4
K:C
V:1 treble nm="Sopran Alt"
V:2 treble 
V:3 bass nm="Tenor Bass"
V:4 bass 
V:1
"^Cornelius Becker\n(1561-1604)""^Psalm 30, SWV 127""^Heinrich Schütz\n(1585-1672)" D2 | A4 A2 | %2
w: ~Ich|preis dich,|
w: ||
w: hast|mei- nen|
 c4 A2 | _B2 A4 | G4 _B2 | A2 G4 | F4 | A2 B4 | c2 d4 | c2 (B3 A | B2) A6- | A4 :| c2 | F4 F2 | %14
w: Herr, zu|al- ler|Stund von|Her- zens-|grund,|daß du|mich tust|er- hö\- *|* hen,||||
w: ||||||||||Ängst-|lich, Herr|
w: Fein- den|nicht ge-|statt, nach|ih- rem|Rat|Args an|mir zu|be- ge\- *|* hen.||||
 F4 D2 | G4 G2 | F4 | C2 G4 | G2 G4 | E2 A4 x2 | A2 G4 | F2 G4 | A2 _B4 | A2 (G3 ^F | E2) D6- | %25
w: |||rief ich|zu dir,|da halfst|du mir,|er- hörst|in Gnad|mein Fle\- *|* hen.|
w: Gott, in|mei- ner|Not|||||||||
w: |||||||||||
 D4 |] %26
w: |
w: |
w: |
V:2
 A,2 | D4 D2 | E4 D2 | D2 D4 | B,4 G,2 | C2 C4 | C4 | F2 D4 | G2 F4 | E2 (E3 C | E2) E6- | E4 :| %12
 E2 | D4 C2 | [_B,C]4 F2 | F2 E4 | F4 | E2 C4 | D2 C4 | B,2 E2 D4 | D4 D2 | E4 ^F2 | G4 D2 | %23
 (D3 ^C/B,/ C2) | D6- x2 | D4 |] %26
V:3
 F,2 | F,4 F,2 | A,4 ^F,2 | G,2 ^F,4 | G,4 D,2 | F,2 E,4 | F,4 | C2 B,4 | G,2 A,4 | A,2 (^G,3 A, | %10
 ^G,2) A,6- | A,4 :| A,2 | A,4 C2 | D4 A,2 | D2 C4 | A,4 | %17
"^2. Als ich lag krank und siech zu Bett, durch dich errett, ist mir gar wohl gelungen; \nder Teufel macht mir Angst und bang, tät mir groß Drang. Blies in der Höllen Funken. \nÜber mein Schuld dein göttlich Huld half meiner Seel \naus Angst der Höll darin jene versunken.\n\n3. Lobsinget Gott, ihr Gläubgen all, preiset mit Schall sein Heiligkeit am Reihen. \nSein Zorn währt nur ein Augenblick, bald ihn zurück hält sein Herz fromm und treue;\ndes Lebens Gott läßt nicht im Tod, die Abendzeit\ngeht hin mit Leid, der Morgen bringt groß Freude.\n\n4. Ich war sehr keck, da mirs wohlging, hielts für leicht Ding, daß ich könnt stehn ohn Wanken, \nweil mir Glück gab der fromme Gott, hats keine Not, dacht, Trost gehört nur Kranken,\ndäucht mich sehr stark. Bald Gott verbarg sein Angesicht,\nerschreck es mich, zerschlug mir all mein Gdanken.\n\n6. Du hast verwandelt Klag und Leid zur Fröhlichkeit daß ich getrost kann singen, \ndu zeuchst mir aus das Trauerkleid, gürtst mich mit Freud, ich geh in eitel Springen,\ndein göttlich Ehr zu preisen sehr mit Dankbarkeit\nin Ewigkeit, Herr Gott, laß wohlgelingen." G,2 E,4 | %18
 D,2 E,4 | G,2 G,4 x2 | ^F,2 G,4 | A,2 C4 | C2 D4 | A,2 _B,2 D,2 | A,2 A,6- | A,4 |] %26
V:4
 D,2 | D,4 D,2 | A,,4 D,2 | G,,2 D,4 | G,,4 G,,2 | !courtesy!=F,,2 C,4 | F,,4 | F,2 G,4 | E,2 D,4 | %9
 A,,2 (E,3 F, | E,2) A,,6- | A,,4 :| A,,2 | D,4 A,,2 | _B,,4 D,2 | _B,,2 C,4 | F,,4 | C,2 C,4 | %18
 B,,2 C,4 | E,2 C,2 D,4 | G,,4 D,2 | C,4 A,,2 | G,,4 ^F,,2 | G,,4 A,,2 | D,6- x2 | D,4 |] %26

